launcher/android/assets/skins/day/svg/traddi.svg

<svg enable-background="new 0 0 220.00 220.00" height="220" viewBox="0 0 220 220" width="220" xmlns="http://www.w3.org/2000/svg" xmlns:xlink="http://www.w3.org/1999/xlink"><linearGradient id="a" gradientUnits="objectBoundingBox" x1="-.0487921" x2="1.04879" y1=".500001" y2=".5"><stop offset=".00925926" stop-color="#c0c0c0"/><stop offset=".197949" stop-color="#8b8b8b" stop-opacity=".501961"/><stop offset=".421296" stop-color="#575757" stop-opacity="0"/><stop offset=".611111" stop-color="#626262" stop-opacity="0"/><stop offset="1" stop-color="#c0c0c0" stop-opacity=".4"/></linearGradient><filter id="b" filterUnits="userSpaceOnUse"><feGaussianBlur stdDeviation="1.88976"/></filter><linearGradient id="c" gradientTransform="matrix(-1 0 0 -1 2.111732 1.000004)" gradientUnits="objectBoundingBox" x1="1.05587" x2="2.1676" y1=".500002" y2=".500002"><stop offset="0" stop-color="#8fc072"/><stop offset=".662037" stop-color="#87b76b"/><stop offset="1" stop-color="#80af64"/></linearGradient><linearGradient id="d" gradientTransform="matrix(-.999375856205 -.035325600269 .035325600269 -.999375856205 1.970746955365 1.345631775862)" gradientUnits="objectBoundingBox" x1=".997261" x2="2.03922" y1=".655406" y2=".655406"><stop offset="0" stop-color="#316013"/><stop offset=".662037" stop-color="#447327"/><stop offset="1" stop-color="#58873b"/></linearGradient><linearGradient id="e" gradientUnits="objectBoundingBox" x1="-.048792" x2="1.04879" y1=".5" y2=".5"><stop offset="0" stop-color="#c0c0c0" stop-opacity="0"/><stop offset=".19505" stop-color="#989898" stop-opacity="0"/><stop offset=".425926" stop-color="#707070" stop-opacity="0"/><stop offset=".787037" stop-color="#6c6c6c" stop-opacity="0"/><stop offset=".986111" stop-color="#b9b9b9" stop-opacity=".6"/></linearGradient><path d="m103.026 117.849 90.334-50.4996v47.6666l-90.334 52.833z" fill="#fff" stroke="#000" stroke-linecap="square" stroke-linejoin="bevel" stroke-width="5"/><path d="m23.0264 115.016h79.3336l.041 52.958-62.2496.25-10.75-3-6.25-9z" fill="#fff" stroke="#000" stroke-linecap="square" stroke-linejoin="bevel" stroke-width="5"/><path d="m91.3995 91.0918c32.9995-15.7351 65.8585-15.6849 73.3905.112 7.533 15.7972-13.113 41.3592-46.113 57.0942-33.0008 15.735-65.859 15.685-73.3913-.112s13.1139-41.359 46.1138-57.0942z" fill="url(#a)" filter="url(#b)" stroke-linecap="square" stroke-linejoin="bevel" stroke-width=".2"/><path d="m16.943 102.099 89.583-.291v12.75l-89.4163.208z" fill="#80af64" stroke="#000" stroke-width="5"/><path d="m16.2764 102.266 98.2146-52.7284 80.785-.4797-92.221 53.2501z" fill="url(#c)" stroke="#000" stroke-width="5"/><g stroke-linejoin="bevel"><path d="m63.443 91.2662 37.083-.0834 56.334-31.3335-38.667.3335z" fill="url(#d)" stroke-linecap="square" stroke-width=".2"/><path d="m107.61 100.933 90.375-53.3753v15.5l-90.375 51.5413z" fill="#80af64" stroke="#000" stroke-linecap="square" stroke-width="5"/><path d="m113.554 81.0796c33-15.7351 65.859-15.6849 73.391.112 7.533 15.797-13.113 41.3594-46.114 57.0944-33 15.735-65.8582 15.685-73.3905-.112s13.1139-41.3594 46.1135-57.0944z" fill="url(#e)" filter="url(#b)" stroke-linecap="square" stroke-width=".2"/><path d="m42.568 114.558 46.5.25-16.5 18h-43.75z" fill="#80af64" stroke="#000" stroke-width="5"/></g></svg>

﻿<?xml version="1.0" encoding="utf-8"?>
<!DOCTYPE svg PUBLIC "-//W3C//DTD SVG 1.1//EN" "http://www.w3.org/Graphics/SVG/1.1/DTD/svg11.dtd">
<svg xmlns="http://www.w3.org/2000/svg" xmlns:xlink="http://www.w3.org/1999/xlink" version="1.1" baseProfile="full" width="220" height="220" viewBox="0 0 220.00 220.00" enable-background="new 0 0 220.00 220.00" xml:space="preserve">
	<g>
		<path fill="#FFFFFF" fill-opacity="1" stroke-width="5" stroke-linecap="square" stroke-linejoin="bevel" stroke="#000000" stroke-opacity="1" d="M 103.026,117.849L 193.36,67.3494L 193.36,115.016L 103.026,167.849L 103.026,117.849 Z "/>
		<path fill="#FFFFFF" fill-opacity="1" stroke-width="5" stroke-linecap="square" stroke-linejoin="bevel" stroke="#000000" stroke-opacity="1" d="M 23.0264,115.016L 102.36,115.016L 102.401,167.974L 40.1514,168.224L 29.4014,165.224L 23.1514,156.224L 23.0264,115.016 Z "/>
		<linearGradient id="SVGID_Fill1_" gradientUnits="objectBoundingBox" x1="-0.0487921" y1="0.500001" x2="1.04879" y2="0.5">
			<stop offset="0.00925926" stop-color="#C0C0C0" stop-opacity="1"/>
			<stop offset="0.197949" stop-color="#8B8B8B" stop-opacity="0.501961"/>
			<stop offset="0.421296" stop-color="#575757" stop-opacity="0"/>
			<stop offset="0.611111" stop-color="#626262" stop-opacity="0"/>
			<stop offset="1" stop-color="#C0C0C0" stop-opacity="0.4"/>
		</linearGradient>
		<filter id="Filter_GaussianBlur1_" filterUnits="userSpaceOnUse">
			<feGaussianBlur stdDeviation="1.88976"/>
		</filter>
		<path fill="url(#SVGID_Fill1_)" stroke-width="0.2" stroke-linecap="square" stroke-linejoin="bevel" filter="url(#Filter_GaussianBlur1_)" d="M 91.3995,91.0918C 124.399,75.3567 157.258,75.4069 164.79,91.2038C 172.323,107.001 151.677,132.563 118.677,148.298C 85.6762,164.033 52.818,163.983 45.2857,148.186C 37.7534,132.389 58.3996,106.827 91.3995,91.0918 Z "/>
		<path fill="#80AF64" fill-opacity="1" stroke-width="5" stroke-linejoin="miter" stroke="#000000" stroke-opacity="1" d="M 16.943,102.099L 106.526,101.808L 106.526,114.558L 17.1097,114.766L 16.943,102.099 Z "/>
		<linearGradient id="SVGID_Fill2_" gradientUnits="objectBoundingBox" x1="1.05587" y1="0.500002" x2="2.1676" y2="0.500002" gradientTransform="rotate(180.000000 1.055866 0.500002)">
			<stop offset="0" stop-color="#8FC072" stop-opacity="1"/>
			<stop offset="0.662037" stop-color="#87B76B" stop-opacity="1"/>
			<stop offset="1" stop-color="#80AF64" stop-opacity="1"/>
		</linearGradient>
		<path fill="url(#SVGID_Fill2_)" stroke-width="5" stroke-linejoin="miter" stroke="#000000" stroke-opacity="1" d="M 16.2764,102.266L 114.491,49.5376L 195.276,49.0579L 103.055,102.308L 16.2764,102.266 Z "/>
		<linearGradient id="SVGID_Fill3_" gradientUnits="objectBoundingBox" x1="0.997261" y1="0.655406" x2="2.03922" y2="0.655406" gradientTransform="rotate(182.024429 0.997261 0.655406)">
			<stop offset="0" stop-color="#316013" stop-opacity="1"/>
			<stop offset="0.662037" stop-color="#447327" stop-opacity="1"/>
			<stop offset="1" stop-color="#58873B" stop-opacity="1"/>
		</linearGradient>
		<path fill="url(#SVGID_Fill3_)" stroke-width="0.2" stroke-linecap="square" stroke-linejoin="bevel" d="M 63.443,91.2662L 100.526,91.1828L 156.86,59.8493L 118.193,60.1828L 63.443,91.2662 Z "/>
		<path fill="#80AF64" fill-opacity="1" stroke-width="5" stroke-linecap="square" stroke-linejoin="bevel" stroke="#000000" stroke-opacity="1" d="M 107.61,100.933L 197.985,47.5577L 197.985,63.0577L 107.61,114.599L 107.61,100.933 Z "/>
		<linearGradient id="SVGID_Fill4_" gradientUnits="objectBoundingBox" x1="-0.048792" y1="0.5" x2="1.04879" y2="0.5">
			<stop offset="0" stop-color="#C0C0C0" stop-opacity="0"/>
			<stop offset="0.19505" stop-color="#989898" stop-opacity="0"/>
			<stop offset="0.425926" stop-color="#707070" stop-opacity="0"/>
			<stop offset="0.787037" stop-color="#6C6C6C" stop-opacity="0"/>
			<stop offset="0.986111" stop-color="#B9B9B9" stop-opacity="0.6"/>
		</linearGradient>
		<filter id="Filter_GaussianBlur2_" filterUnits="userSpaceOnUse">
			<feGaussianBlur stdDeviation="1.88976"/>
		</filter>
		<path fill="url(#SVGID_Fill4_)" stroke-width="0.2" stroke-linecap="square" stroke-linejoin="bevel" filter="url(#Filter_GaussianBlur2_)" d="M 113.554,81.0796C 146.554,65.3445 179.413,65.3947 186.945,81.1916C 194.478,96.9886 173.832,122.551 140.831,138.286C 107.831,154.021 74.9728,153.971 67.4405,138.174C 59.9082,122.377 80.5544,96.8146 113.554,81.0796 Z "/>
		<path fill="#80AF64" fill-opacity="1" stroke-width="5" stroke-linejoin="bevel" stroke="#000000" stroke-opacity="1" d="M 42.568,114.558L 89.068,114.808L 72.568,132.808L 28.818,132.808L 42.568,114.558 Z "/>
	</g>
</svg>
